korla/apps/scalable/armagetronad.svg

<?xml version="1.0" encoding="UTF-8" standalone="no"?>
<!-- Created with Inkscape (http://www.inkscape.org/) -->

<svg
   xmlns:osb="http://www.openswatchbook.org/uri/2009/osb"
   xmlns:dc="http://purl.org/dc/elements/1.1/"
   xmlns:cc="http://creativecommons.org/ns#"
   xmlns:rdf="http://www.w3.org/1999/02/22-rdf-syntax-ns#"
   xmlns:svg="http://www.w3.org/2000/svg"
   xmlns="http://www.w3.org/2000/svg"
   xmlns:xlink="http://www.w3.org/1999/xlink"
   xmlns:sodipodi="http://sodipodi.sourceforge.net/DTD/sodipodi-0.dtd"
   xmlns:inkscape="http://www.inkscape.org/namespaces/inkscape"
   width="48"
   height="48"
   id="svg5453"
   version="1.1"
   inkscape:version="0.92+devel unknown"
   sodipodi:docname="armagetronad.svg">
  <defs
     id="defs5455">
    <linearGradient
       inkscape:collect="always"
       xlink:href="#linearGradient4191"
       id="linearGradient4174"
       x1="409.57144"
       y1="543.79797"
       x2="409.57144"
       y2="503.798"
       gradientUnits="userSpaceOnUse"
       gradientTransform="matrix(0.94517261,0,0,0.94517261,22.303822,28.427286)" />
    <linearGradient
       osb:paint="gradient"
       id="linearGradient4207">
      <stop
         id="stop3371"
         offset="0"
         style="stop-color:#3498db;stop-opacity:1;" />
      <stop
         id="stop3373"
         offset="1"
         style="stop-color:#3498db;stop-opacity:0;" />
    </linearGradient>
    <style
       type="text/css"
       id="current-color-scheme">.ColorScheme-Text {
        color:#31363b;
      }
      .ColorScheme-Background{
        color:#eff0f1;
      }
      .ColorScheme-ViewText {
        color:#31363b;
      }
      .ColorScheme-ViewBackground{
        color:#fcfcfc;
      }
      .ColorScheme-ViewHover {
        color:#3daee9;
      }
      .ColorScheme-ViewFocus{
        color:#3daee9;
      }
      .ColorScheme-ButtonText {
        color:#31363b;
      }
      .ColorScheme-ButtonBackground{
        color:#eff0f1;
      }
      .ColorScheme-ButtonHover {
        color:#3daee9;
      }
      .ColorScheme-ButtonFocus{
        color:#3daee9;
      }</style>
    <style
       type="text/css"
       id="current-color-scheme-8">.ColorScheme-Text {
        color:#31363b;
      }
      .ColorScheme-Background{
        color:#eff0f1;
      }
      .ColorScheme-ViewText {
        color:#31363b;
      }
      .ColorScheme-ViewBackground{
        color:#fcfcfc;
      }
      .ColorScheme-ViewHover {
        color:#3daee9;
      }
      .ColorScheme-ViewFocus{
        color:#3daee9;
      }
      .ColorScheme-ButtonText {
        color:#31363b;
      }
      .ColorScheme-ButtonBackground{
        color:#eff0f1;
      }
      .ColorScheme-ButtonHover {
        color:#3daee9;
      }
      .ColorScheme-ButtonFocus{
        color:#3daee9;
      }</style>
    <style
       type="text/css"
       id="current-color-scheme-7">.ColorScheme-Text {
        color:#31363b;
      }
      .ColorScheme-Background{
        color:#eff0f1;
      }
      .ColorScheme-ViewText {
        color:#31363b;
      }
      .ColorScheme-ViewBackground{
        color:#fcfcfc;
      }
      .ColorScheme-ViewHover {
        color:#3daee9;
      }
      .ColorScheme-ViewFocus{
        color:#3daee9;
      }
      .ColorScheme-ButtonText {
        color:#31363b;
      }
      .ColorScheme-ButtonBackground{
        color:#eff0f1;
      }
      .ColorScheme-ButtonHover {
        color:#3daee9;
      }
      .ColorScheme-ButtonFocus{
        color:#3daee9;
      }</style>
    <style
       type="text/css"
       id="current-color-scheme-0">.ColorScheme-Text {
        color:#31363b;
      }
      .ColorScheme-Background{
        color:#eff0f1;
      }
      .ColorScheme-ViewText {
        color:#31363b;
      }
      .ColorScheme-ViewBackground{
        color:#fcfcfc;
      }
      .ColorScheme-ViewHover {
        color:#3daee9;
      }
      .ColorScheme-ViewFocus{
        color:#3daee9;
      }
      .ColorScheme-ButtonText {
        color:#31363b;
      }
      .ColorScheme-ButtonBackground{
        color:#eff0f1;
      }
      .ColorScheme-ButtonHover {
        color:#3daee9;
      }
      .ColorScheme-ButtonFocus{
        color:#3daee9;
      }</style>
    <style
       type="text/css"
       id="current-color-scheme-8-6">.ColorScheme-Text {
        color:#31363b;
      }
      .ColorScheme-Background{
        color:#eff0f1;
      }
      .ColorScheme-ViewText {
        color:#31363b;
      }
      .ColorScheme-ViewBackground{
        color:#fcfcfc;
      }
      .ColorScheme-ViewHover {
        color:#3daee9;
      }
      .ColorScheme-ViewFocus{
        color:#3daee9;
      }
      .ColorScheme-ButtonText {
        color:#31363b;
      }
      .ColorScheme-ButtonBackground{
        color:#eff0f1;
      }
      .ColorScheme-ButtonHover {
        color:#3daee9;
      }
      .ColorScheme-ButtonFocus{
        color:#3daee9;
      }</style>
    <style
       type="text/css"
       id="current-color-scheme-7-6">.ColorScheme-Text {
        color:#31363b;
      }
      .ColorScheme-Background{
        color:#eff0f1;
      }
      .ColorScheme-ViewText {
        color:#31363b;
      }
      .ColorScheme-ViewBackground{
        color:#fcfcfc;
      }
      .ColorScheme-ViewHover {
        color:#3daee9;
      }
      .ColorScheme-ViewFocus{
        color:#3daee9;
      }
      .ColorScheme-ButtonText {
        color:#31363b;
      }
      .ColorScheme-ButtonBackground{
        color:#eff0f1;
      }
      .ColorScheme-ButtonHover {
        color:#3daee9;
      }
      .ColorScheme-ButtonFocus{
        color:#3daee9;
      }</style>
    <style
       type="text/css"
       id="current-color-scheme-4">.ColorScheme-Text {
        color:#31363b;
      }
      .ColorScheme-Background{
        color:#eff0f1;
      }
      .ColorScheme-ViewText {
        color:#31363b;
      }
      .ColorScheme-ViewBackground{
        color:#fcfcfc;
      }
      .ColorScheme-ViewHover {
        color:#3daee9;
      }
      .ColorScheme-ViewFocus{
        color:#3daee9;
      }
      .ColorScheme-ButtonText {
        color:#31363b;
      }
      .ColorScheme-ButtonBackground{
        color:#eff0f1;
      }
      .ColorScheme-ButtonHover {
        color:#3daee9;
      }
      .ColorScheme-ButtonFocus{
        color:#3daee9;
      }</style>
    <style
       type="text/css"
       id="current-color-scheme-8-0">.ColorScheme-Text {
        color:#31363b;
      }
      .ColorScheme-Background{
        color:#eff0f1;
      }
      .ColorScheme-ViewText {
        color:#31363b;
      }
      .ColorScheme-ViewBackground{
        color:#fcfcfc;
      }
      .ColorScheme-ViewHover {
        color:#3daee9;
      }
      .ColorScheme-ViewFocus{
        color:#3daee9;
      }
      .ColorScheme-ButtonText {
        color:#31363b;
      }
      .ColorScheme-ButtonBackground{
        color:#eff0f1;
      }
      .ColorScheme-ButtonHover {
        color:#3daee9;
      }
      .ColorScheme-ButtonFocus{
        color:#3daee9;
      }</style>
    <style
       type="text/css"
       id="current-color-scheme-7-7">.ColorScheme-Text {
        color:#31363b;
      }
      .ColorScheme-Background{
        color:#eff0f1;
      }
      .ColorScheme-ViewText {
        color:#31363b;
      }
      .ColorScheme-ViewBackground{
        color:#fcfcfc;
      }
      .ColorScheme-ViewHover {
        color:#3daee9;
      }
      .ColorScheme-ViewFocus{
        color:#3daee9;
      }
      .ColorScheme-ButtonText {
        color:#31363b;
      }
      .ColorScheme-ButtonBackground{
        color:#eff0f1;
      }
      .ColorScheme-ButtonHover {
        color:#3daee9;
      }
      .ColorScheme-ButtonFocus{
        color:#3daee9;
      }</style>
    <clipPath
       id="clipPath-097322657">
      <g
         id="g4210"
         transform="translate(0,-1004.3622)">
        <path
           id="path4212"
           fill="#1890d0"
           transform="matrix(15.333333,0,0,11.5,414.99999,878.8622)"
           d="m -24 13 c 0 1.105 -0.672 2 -1.5 2 -0.828 0 -1.5 -0.895 -1.5 -2 0 -1.105 0.672 -2 1.5 -2 0.828 0 1.5 0.895 1.5 2 z" />
      </g>
    </clipPath>
    <linearGradient
       inkscape:collect="always"
       id="linearGradient4191">
      <stop
         style="stop-color:#2e3e46;stop-opacity:1"
         offset="0"
         id="stop4193" />
      <stop
         style="stop-color:#435a64;stop-opacity:1"
         offset="1"
         id="stop4195" />
    </linearGradient>
  </defs>
  <sodipodi:namedview
     id="base"
     pagecolor="#5a5a5a"
     bordercolor="#000000"
     borderopacity="1"
     inkscape:pageopacity="0"
     inkscape:pageshadow="2"
     inkscape:zoom="12.529932"
     inkscape:cx="16.503668"
     inkscape:cy="26.297382"
     inkscape:document-units="px"
     inkscape:current-layer="g4441"
     showgrid="false"
     fit-margin-top="0"
     fit-margin-left="0"
     fit-margin-right="0"
     fit-margin-bottom="0"
     inkscape:window-width="1366"
     inkscape:window-height="633"
     inkscape:window-x="0"
     inkscape:window-y="33"
     inkscape:window-maximized="1"
     inkscape:showpageshadow="false"
     borderlayer="true"
     showguides="false"
     showborder="true"
     inkscape:document-rotation="0"
     inkscape:pagecheckerboard="true">
    <inkscape:grid
       type="xygrid"
       id="grid4063" />
    <sodipodi:guide
       position="1.1650391e-05,47.999996"
       orientation="4,0"
       id="guide4146"
       inkscape:locked="false" />
    <sodipodi:guide
       position="1.1650391e-05,43.999996"
       orientation="0,48"
       id="guide4148"
       inkscape:locked="false" />
    <sodipodi:guide
       position="48.000012,43.999996"
       orientation="-4,0"
       id="guide4150"
       inkscape:locked="false" />
    <sodipodi:guide
       position="48.000012,47.999996"
       orientation="0,-48"
       id="guide4152"
       inkscape:locked="false" />
    <sodipodi:guide
       position="1.1650391e-05,4.0000264"
       orientation="4,0"
       id="guide4154"
       inkscape:locked="false" />
    <sodipodi:guide
       position="1.1650391e-05,2.6367188e-05"
       orientation="0,48"
       id="guide4156"
       inkscape:locked="false" />
    <sodipodi:guide
       position="48.000012,2.6367188e-05"
       orientation="-4,0"
       id="guide4158"
       inkscape:locked="false" />
    <sodipodi:guide
       position="48.000012,4.0000264"
       orientation="0,-48"
       id="guide4160"
       inkscape:locked="false" />
    <sodipodi:guide
       position="48.000012,48.000026"
       orientation="0,-4"
       id="guide4162"
       inkscape:locked="false" />
    <sodipodi:guide
       position="44.000012,48.000026"
       orientation="48,0"
       id="guide4164"
       inkscape:locked="false" />
    <sodipodi:guide
       position="44.000012,2.6367188e-05"
       orientation="0,4"
       id="guide4166"
       inkscape:locked="false" />
    <sodipodi:guide
       position="48.000012,2.6367188e-05"
       orientation="-48,0"
       id="guide4168"
       inkscape:locked="false" />
    <sodipodi:guide
       position="4.0000422,48.000026"
       orientation="0,-4"
       id="guide4170"
       inkscape:locked="false" />
    <sodipodi:guide
       position="4.2167969e-05,48.000026"
       orientation="48,0"
       id="guide4172"
       inkscape:locked="false" />
    <sodipodi:guide
       position="4.2167969e-05,2.6367188e-05"
       orientation="0,4"
       id="guide4174"
       inkscape:locked="false" />
    <sodipodi:guide
       position="4.0000422,2.6367188e-05"
       orientation="-48,0"
       id="guide4176"
       inkscape:locked="false" />
    <sodipodi:guide
       position="4.0000117,47.999996"
       orientation="43.999969,0"
       id="guide4638"
       inkscape:locked="false" />
    <sodipodi:guide
       position="4.0000117,4.0000264"
       orientation="0,20"
       id="guide4640"
       inkscape:locked="false" />
    <sodipodi:guide
       position="24.000012,4.0000264"
       orientation="-43.999969,0"
       id="guide4642"
       inkscape:locked="false" />
    <sodipodi:guide
       position="24.000012,47.999996"
       orientation="0,-20"
       id="guide4644"
       inkscape:locked="false" />
    <sodipodi:guide
       position="4.0000422,24.000026"
       orientation="20,0"
       id="guide4666"
       inkscape:locked="false" />
    <sodipodi:guide
       position="4.0000422,4.0000264"
       orientation="0,39.999969"
       id="guide4668"
       inkscape:locked="false" />
    <sodipodi:guide
       position="44.000012,4.0000264"
       orientation="-20,0"
       id="guide4670"
       inkscape:locked="false" />
    <sodipodi:guide
       position="44.000012,24.000026"
       orientation="0,-39.999969"
       id="guide4672"
       inkscape:locked="false" />
  </sodipodi:namedview>
  <metadata
     id="metadata5458">
    <rdf:RDF>
      <cc:Work
         rdf:about="">
        <dc:format>image/svg+xml</dc:format>
        <dc:type
           rdf:resource="http://purl.org/dc/dcmitype/StillImage" />
        <dc:title></dc:title>
      </cc:Work>
    </rdf:RDF>
  </metadata>
  <g
     inkscape:label="Layer 1"
     inkscape:groupmode="layer"
     id="layer1"
     transform="translate(-384.57143,-499.798)">
    <g
       id="g4441"
       transform="matrix(1.1638089,0,0,1.1638089,-66.814664,-85.463857)">
      <rect
         ry="18.903439"
         y="504.60333"
         x="389.57092"
         height="37.806877"
         width="37.806892"
         id="rect4166"
         style="opacity:1;fill:url(#linearGradient4174);fill-opacity:1;stroke:none;stroke-width:2.5666666;stroke-miterlimit:4;stroke-dasharray:none;stroke-opacity:0.55026455" />
      <path
         id="path4252"
         d="m 408.4721,511.51973 c -6.56751,0 -11.88975,5.32392 -11.88975,11.88975 0,6.56752 5.32392,11.88976 11.88975,11.88976 6.56752,0 11.88976,-5.32392 11.88976,-11.88976 0,-6.56499 -5.32392,-11.88975 -11.88976,-11.88975 m -0.0689,6.33476 c 3.04932,0 5.52391,2.47122 5.52391,5.5239 0,3.04933 -2.47122,5.52391 -5.52391,5.52391 -3.04932,0 -5.5239,-2.47458 -5.5239,-5.52391 0,-3.04932 2.47458,-5.5239 5.5239,-5.5239 m 0,0"
         inkscape:connector-curvature="0"
         style="fill:#b9d543;fill-opacity:0.38800001;fill-rule:nonzero;stroke:none;stroke-width:0.84026521" />
      <path
         style="fill:#ffce02;fill-opacity:0.84677423;fill-rule:nonzero;stroke:none;stroke-width:0.97790813"
         d="M 23.96875 9.2285156 C 15.866778 9.2285156 9.2988281 15.794512 9.2988281 23.896484 C 9.2988281 31.994534 15.866778 38.560547 23.96875 38.560547 C 32.0668 38.560547 38.632812 31.994534 38.632812 23.896484 C 38.632812 15.794512 32.0668 9.2285156 23.96875 9.2285156 z M 23.994141 10.048828 C 31.637479 10.048828 37.832031 16.245347 37.832031 23.886719 C 37.832031 31.530057 31.635524 37.724609 23.994141 37.724609 C 16.350814 37.724609 10.15625 31.528102 10.15625 23.886719 C 10.15625 16.246325 16.352769 10.048828 23.994141 10.048828 z M 23.998047 14.503906 C 18.837625 14.503906 14.650391 18.686257 14.650391 23.847656 C 14.650391 29.008078 18.836648 33.191406 23.998047 33.191406 C 29.158469 33.191406 33.337891 29.009056 33.337891 23.847656 C 33.337891 18.687234 29.159446 14.503906 23.998047 14.503906 z M 23.998047 15.527344 C 28.612805 15.527344 32.355469 19.271968 32.355469 23.890625 C 32.355469 28.505383 28.612805 32.248047 23.998047 32.248047 C 19.3833 32.248047 15.634766 28.505383 15.634766 23.890625 C 15.634766 19.275878 19.37939 15.527344 23.998047 15.527344 z "
         transform="matrix(0.8592476,0,0,0.8592476,387.85242,502.88484)"
         id="path4250" />
    </g>
  </g>
</svg>

<svg style="clip-rule:evenodd;fill-rule:evenodd;stroke-linejoin:round;stroke-miterlimit:1.41421" version="1.1" viewBox="0 0 48 48" xmlns="http://www.w3.org/2000/svg">
 <circle cx="23.917" cy="23.848" r="22.011" style="fill:url(#_Linear1)"/>
 <path d="m23.997 10.049c-7.643 0-13.837 6.196-13.837 13.838 0 7.643 6.196 13.837 13.837 13.837 7.644 0 13.838-6.196 13.838-13.837s-6.196-13.838-13.838-13.838m-0.08 7.373c3.549 0 6.429 2.876 6.429 6.429 0 3.548-2.876 6.428-6.429 6.428-3.549 0-6.429-2.88-6.429-6.428 0-3.549 2.88-6.429 6.429-6.429" style="fill-opacity:.38;fill-rule:nonzero;fill:#b9d543"/>
 <path d="m23.969 9.229c-8.102 0-14.67 6.566-14.67 14.667 0 8.099 6.568 14.665 14.67 14.665 8.098 0 14.664-6.566 14.664-14.665 0-8.101-6.566-14.667-14.664-14.667zm0.025 0.82c7.643 0 13.838 6.196 13.838 13.838 0 7.643-6.196 13.838-13.838 13.838-7.643 0-13.838-6.197-13.838-13.838s6.197-13.838 13.838-13.838zm4e-3 4.455c-5.16 0-9.348 4.182-9.348 9.344 0 5.16 4.187 9.343 9.348 9.343 5.16 0 9.34-4.182 9.34-9.343s-4.179-9.344-9.34-9.344zm0 1.023c4.615 0 8.357 3.745 8.357 8.364 0 4.614-3.742 8.357-8.357 8.357s-8.363-3.743-8.363-8.357c0-4.615 3.744-8.364 8.363-8.364z" style="fill-opacity:.84;fill-rule:nonzero;fill:#ffce02"/>
 <defs>
  <linearGradient id="_Linear1" x2="1" gradientTransform="matrix(2.69557e-15,-44.0221,44.0221,2.69558e-15,25.0177,45.8587)" gradientUnits="userSpaceOnUse">
   <stop style="stop-color:#2e3e46" offset="0"/>
   <stop style="stop-color:#435a64" offset="1"/>
  </linearGradient>
 </defs>
</svg>
